picto/ladies-toilets-framed.svg

<svg class="color-immutable" width="30" height="30" viewBox="0 0 30 30" fill="none" xmlns="http://www.w3.org/2000/svg"><path d="M29.9999 0H0V29.9999H29.9999V0Z" fill="#2D327D"/><path d="M25.4999 2.99999C26.3249 2.99999 26.9999 3.67499 26.9999 4.49999V25.4999C26.9999 26.3249 26.3249 26.9999 25.4999 26.9999H4.49999C3.67499 26.9999 2.99999 26.3249 2.99999 25.4999V4.49999C2.99999 3.67499 3.67499 2.99999 4.49999 2.99999H25.4999ZM25.4999 2.62499H4.49999C3.46612 2.62499 2.62499 3.46612 2.62499 4.49999V25.4999C2.62499 26.5338 3.46612 27.3749 4.49999 27.3749H25.4999C26.5338 27.3749 27.3749 26.5338 27.3749 25.4999V4.49999C27.3749 3.46612 26.5338 2.62499 25.4999 2.62499Z" fill="white"/><path d="M13.2121 15.7038C13.2894 15.914 13.4896 16.0536 13.7133 16.0536C14.0084 16.0536 14.2476 15.8142 14.2476 15.5191C14.2476 15.4562 14.2365 15.3936 14.2148 15.3344L12.3808 10.3561C12.1635 9.7664 11.6016 9.37468 10.9731 9.37468H9.27582C8.64748 9.37468 8.08573 9.76632 7.86815 10.3561L6.03418 15.3344C6.01221 15.3936 6.00133 15.4562 6.00133 15.5191C6.00133 15.8142 6.24058 16.0536 6.5357 16.0536C6.7595 16.0536 6.95945 15.9139 7.03693 15.7038H7.03715L8.53993 11.6247H9.03935L6.41443 18.7497H8.34298V23.2309C8.34298 23.6552 8.68767 23.9996 9.11195 23.9996C9.53645 23.9996 9.88062 23.6553 9.88062 23.2309V18.7497H10.3682V23.2309C10.3682 23.6552 10.7126 23.9996 11.1369 23.9996C11.5614 23.9996 11.9058 23.6553 11.9058 23.2309V18.7497H13.8346L11.2095 11.6247H11.7092L13.2121 15.7038Z" fill="white"/><path d="M11.5939 7.48822C11.5939 6.66022 10.9218 5.98815 10.0937 5.98815C9.26581 5.98815 8.59373 6.66022 8.59373 7.48822C8.59373 8.31622 9.26581 8.98814 10.0937 8.98814C10.9218 8.98814 11.5939 8.31622 11.5939 7.48822Z" fill="white"/></svg>

<svg class="color-immutable" width="30" height="30" viewBox="0 0 30 30" fill="none" xmlns="http://www.w3.org/2000/svg"><path d="M30 0H0v30h30V0Z" fill="#2D327D"/><path d="M25.5 3c.825 0 1.5.675 1.5 1.5v21c0 .825-.675 1.5-1.5 1.5h-21c-.825 0-1.5-.675-1.5-1.5v-21C3 3.675 3.675 3 4.5 3h21Zm0-.375h-21A1.877 1.877 0 0 0 2.625 4.5v21c0 1.034.841 1.875 1.875 1.875h21a1.877 1.877 0 0 0 1.875-1.875v-21A1.877 1.877 0 0 0 25.5 2.625Z" fill="#fff"/><path d="M13.212 15.704a.534.534 0 1 0 1.003-.37l-1.834-4.978a1.5 1.5 0 0 0-1.408-.981H9.276a1.5 1.5 0 0 0-1.408.981l-1.834 4.978a.534.534 0 0 0 1.003.37l1.503-4.08h.5L6.413 18.75h1.929v4.48a.77.77 0 0 0 1.538 0v-4.48h.487v4.48a.769.769 0 0 0 1.538 0v-4.48h1.929l-2.626-7.125h.5l1.503 4.079ZM11.594 7.488a1.5 1.5 0 1 0-3.002.002 1.5 1.5 0 0 0 3.002-.002Z" fill="#fff"/></svg>
